;FLAVOR:RepRap
;TIME:5911
;Filament used: 3.35143m
;Layer height: 0.1
;MINX:23.062
;MINY:23.4
;MINZ:0.3
;MAXX:76.262
;MAXY:76.6
;MAXZ:25.4
;TARGET_MACHINE.NAME:Unknown
;Generated with Cura_SteamEngine 5.10.2
T0
M104 S200
M109 S200
G28 ;Home
G1 Z15.0 F6000 ;Move the platform down 15mm
;Prime the extruder
G92 E0
G1 F200 E3
G92 E0
M82 ;absolute extrusion mode
M83 ;relative extrusion mode
G1 F1500 E-6.5
;LAYER_COUNT:252
;LAYER:0
M107
G0 F3600 X26.097 Y25.446 Z0.3
;TYPE:SKIRT
G1 F1500 E6.5
G1 F1800 X27.997 Y24.225 E0.11268
G1 X30.475 Y23.4 E0.1303
G1 X68.36 Y23.4 E1.89009
G1 X70.687 Y23.897 E0.11871
G1 X73.331 Y25.458 E0.15318
G1 X75.198 Y27.812 E0.14989
G1 X76.003 Y30.124 E0.12214
G1 X76.262 Y31.384 E0.06418
G1 X76.262 Y69.358 E1.89453
G1 X75.269 Y72.048 E0.14306
G1 X73.521 Y74.382 E0.14548
G1 X71.32 Y75.781 E0.13011
G1 X68.849 Y76.6 E0.12987
G1 X30.879 Y76.6 E1.89433
G1 X28.286 Y75.981 E0.133
G1 X25.995 Y74.391 E0.13913
G1 X25.108 Y73.565 E0.06047
G1 X23.887 Y71.665 E0.11268
G1 X23.062 Y69.187 E0.1303
G1 X23.062 Y31.217 E1.89433
G1 X23.681 Y28.624 E0.133
G1 X25.271 Y26.333 E0.13913
G1 X26.097 Y25.446 E0.06047
G0 F3600 X26.356 Y25.755
G1 F1800 X28.171 Y24.589 E0.10763
G1 X30.541 Y23.8 E0.12462
G1 X68.318 Y23.8 E1.8847
G1 X70.541 Y24.275 E0.11341
G1 X73.063 Y25.764 E0.14612
G1 X74.842 Y28.006 E0.14279
G1 X75.611 Y30.205 E0.11622
G1 X75.862 Y31.426 E0.06219
G1 X75.862 Y69.287 E1.88889
G1 X74.914 Y71.855 E0.13657
G1 X73.246 Y74.082 E0.13881
G1 X71.146 Y75.417 E0.12415
G1 X68.783 Y76.2 E0.12419
G1 X30.926 Y76.2 E1.88869
G1 X28.453 Y75.61 E0.12684
G1 X26.268 Y74.098 E0.13257
G1 X25.417 Y73.306 E0.058
G1 X24.251 Y71.491 E0.10763
G1 X23.462 Y69.121 E0.12462
G1 X23.462 Y31.264 E1.88869
G1 X24.052 Y28.791 E0.12684
G1 X25.564 Y26.606 E0.13257
G1 X26.356 Y25.755 E0.058
G0 F3600 X26.618 Y26.062
G1 F1800 X28.342 Y24.954 E0.10224
G1 X30.607 Y24.2 E0.1191
G1 X68.276 Y24.2 E1.87931
G1 X70.395 Y24.653 E0.10811
G1 X72.795 Y26.07 E0.13905
G1 X74.487 Y28.202 E0.13579
G1 X75.219 Y30.286 E0.1102
G1 X75.462 Y31.468 E0.0602
G1 X75.462 Y69.216 E1.88326
G1 X74.559 Y71.662 E0.13008
G1 X72.97 Y73.784 E0.13226
G1 X70.974 Y75.052 E0.11798
G1 X68.717 Y75.8 E0.11862
G1 X30.973 Y75.8 E1.88306
G1 X28.618 Y75.238 E0.12079
G1 X26.541 Y73.805 E0.12589
G1 X25.724 Y73.044 E0.0557
G1 X24.616 Y71.32 E0.10224
G1 X23.862 Y69.055 E0.1191
G1 X23.862 Y31.311 E1.88306
G1 X24.424 Y28.956 E0.12079
G1 X25.857 Y26.879 E0.12589
G1 X26.618 Y26.062 E0.0557
G0 F3600 X26.877 Y26.371
G1 F1800 X28.516 Y25.318 E0.09719
G1 X30.673 Y24.6 E0.11342
G1 X68.234 Y24.6 E1.87393
G1 X70.249 Y25.031 E0.1028
G1 X72.527 Y26.376 E0.13198
G1 X74.132 Y28.398 E0.1288
G1 X74.827 Y30.367 E0.10417
G1 X75.062 Y31.51 E0.05822
G1 X75.062 Y69.146 E1.87767
G1 X74.205 Y71.468 E0.12348
G1 X72.695 Y73.484 E0.12566
G1 X70.8 Y74.688 E0.11201
G1 X68.651 Y75.4 E0.11295
G1 X31.02 Y75.4 E1.87742
G1 X28.785 Y74.867 E0.11463
G1 X26.814 Y73.512 E0.11933
G1 X26.033 Y72.785 E0.05323
G1 X24.98 Y71.146 E0.09719
G1 X24.262 Y68.989 E0.11342
G1 X24.262 Y31.358 E1.87742
G1 X24.795 Y29.123 E0.11463
G1 X26.15 Y27.152 E0.11933
G1 X26.877 Y26.371 E0.05323
G0 F3600 X27.139 Y26.678
G1 F1800 X28.687 Y25.683 E0.09181
G1 X30.739 Y25 E0.1079
G1 X68.192 Y25 E1.86854
G1 X70.103 Y25.409 E0.0975
G1 X72.259 Y26.682 E0.12491
G1 X73.777 Y28.594 E0.1218
G1 X74.435 Y30.448 E0.09815
G1 X74.662 Y31.552 E0.05623
G1 X74.662 Y69.075 E1.87203
G1 X73.85 Y71.275 E0.117
G1 X72.42 Y73.184 E0.119
G1 X70.626 Y74.324 E0.10604
G1 X68.585 Y75 E0.10727
G1 X31.067 Y75 E1.87178
G1 X28.95 Y74.495 E0.10858
G1 X27.087 Y73.219 E0.11266
G1 X26.34 Y72.523 E0.05094
G1 X25.345 Y70.975 E0.09181
G1 X24.662 Y68.923 E0.1079
G1 X24.662 Y31.405 E1.87178
G1 X25.167 Y29.288 E0.10858
G1 X26.443 Y27.425 E0.11266
G1 X27.139 Y26.678 E0.05094
G0 F3600 X27.398 Y26.987
G1 F1800 X28.861 Y26.047 E0.08676
G1 X30.805 Y25.4 E0.10222
G1 X68.15 Y25.4 E1.86315
G1 X69.957 Y25.787 E0.0922
G1 X71.991 Y26.988 E0.11785
G1 X73.421 Y28.789 E0.11473
G1 X74.043 Y30.529 E0.09219
G1 X74.262 Y31.594 E0.05424
G1 X74.262 Y69.004 E1.86639
G1 X73.495 Y71.082 E0.11051
G1 X72.144 Y72.886 E0.11244
G1 X70.454 Y73.959 E0.09987
G1 X68.519 Y74.6 E0.1017
G1 X31.114 Y74.6 E1.86614
G1 X29.116 Y74.123 E0.10248
G1 X27.36 Y72.926 E0.10603
G1 X26.649 Y72.264 E0.04847
G1 X25.709 Y70.801 E0.08676
G1 X25.062 Y68.857 E0.10222
G1 X25.062 Y31.452 E1.86614
G1 X25.539 Y29.454 E0.10248
G1 X26.736 Y27.698 E0.10603
G1 X27.398 Y26.987 E0.04847
G0 F3600 X27.66 Y27.294
G1 F1800 X29.032 Y26.412 E0.08137
G1 X30.871 Y25.8 E0.0967
G1 X68.108 Y25.8 E1.85776
G1 X69.811 Y26.165 E0.08689
G1 X71.723 Y27.294 E0.11078
G1 X73.068 Y28.987 E0.10787
G1 X73.651 Y30.61 E0.08604
G1 X73.862 Y31.636 E0.05226
G1 X73.862 Y68.933 E1.86075
G1 X73.14 Y70.889 E0.10402
G1 X71.868 Y72.587 E0.10585
G1 X70.282 Y73.594 E0.09373
G1 X68.453 Y74.2 E0.09613
G1 X31.161 Y74.2 E1.86051
G1 X29.281 Y73.751 E0.09643
G1 X27.633 Y72.633 E0.09935
G1 X26.956 Y72.002 E0.04617
G1 X26.074 Y70.63 E0.08137
G1 X25.462 Y68.791 E0.0967
G1 X25.462 Y31.499 E1.86051
G1 X25.911 Y29.619 E0.09643
G1 X27.029 Y27.971 E0.09935
G1 X27.66 Y27.294 E0.04617
G0 F3600 X27.919 Y27.603
G1 F1800 X29.206 Y26.776 E0.07632
G1 X30.937 Y26.2 E0.09102
G1 X68.066 Y26.2 E1.85237
G1 X69.665 Y26.543 E0.08159
G1 X71.455 Y27.6 E0.10371
G1 X72.714 Y29.185 E0.10099
G1 X73.259 Y30.691 E0.0799
G1 X73.462 Y31.678 E0.05027
G1 X73.462 Y68.862 E1.85512
G1 X72.785 Y70.696 E0.09753
G1 X71.592 Y72.288 E0.09925
G1 X70.11 Y73.229 E0.08758
G1 X68.387 Y73.8 E0.09056
G1 X31.208 Y73.8 E1.85487
G1 X29.444 Y73.379 E0.09048
G1 X27.906 Y72.34 E0.0926
G1 X27.265 Y71.743 E0.0437
G1 X26.438 Y70.456 E0.07632
G1 X25.862 Y68.725 E0.09102
G1 X25.862 Y31.546 E1.85487
G1 X26.283 Y29.782 E0.09048
G1 X27.322 Y28.244 E0.0926
G1 X27.919 Y27.603 E0.0437
G0 F3600 X28.181 Y27.91
G1 F1800 X29.377 Y27.141 E0.07094
G1 X31.003 Y26.6 E0.08549
G1 X68.024 Y26.6 E1.84699
G1 X69.519 Y26.921 E0.07629
G1 X71.187 Y27.906 E0.09664
G1 X72.36 Y29.382 E0.09406
G1 X72.867 Y30.772 E0.07382
G1 X73.062 Y31.72 E0.04829
G1 X73.062 Y68.792 E1.84953
G1 X72.431 Y70.502 E0.09094
G1 X71.316 Y71.989 E0.09273
G1 X69.938 Y72.864 E0.08144
G1 X68.321 Y73.4 E0.08499
G1 X31.255 Y73.4 E1.84923
G1 X29.608 Y73.007 E0.08448
G1 X28.179 Y72.047 E0.08589
G1 X27.572 Y71.481 E0.04141
G1 X26.803 Y70.285 E0.07094
G1 X26.262 Y68.659 E0.08549
G1 X26.262 Y31.593 E1.84923
G1 X26.655 Y29.946 E0.08448
G1 X27.615 Y28.517 E0.08589
G1 X28.181 Y27.91 E0.04141
G0 F3600 X28.44 Y28.219
G1 F1800 X29.551 Y27.505 E0.06589
G1 X31.069 Y27 E0.07981
G1 X67.982 Y27 E1.8416
G1 X69.373 Y27.299 E0.07098
G1 X70.919 Y28.212 E0.08958
G1 X72.007 Y29.581 E0.08724
G1 X72.475 Y30.853 E0.06762
G1 X72.662 Y31.762 E0.0463
G1 X72.662 Y68.722 E1.84394
G1 X72.077 Y70.308 E0.08434
G1 X71.04 Y71.69 E0.0862
G1 X69.766 Y72.499 E0.07529
G1 X68.255 Y73 E0.07942
G1 X31.302 Y73 E1.84359
G1 X29.772 Y72.635 E0.07847
G1 X28.452 Y71.754 E0.07918
G1 X27.881 Y71.222 E0.03894
G1 X27.167 Y70.111 E0.06589
G1 X26.662 Y68.593 E0.07981
G1 X26.662 Y31.64 E1.84359
G1 X27.027 Y30.11 E0.07847
G1 X27.908 Y28.79 E0.07918
G1 X28.44 Y28.219 E0.03894
G0 F3600 X28.699 Y28.528
G1 F1800 X29.725 Y27.869 E0.06084
G1 X31.135 Y27.4 E0.07413
G1 X67.94 Y27.4 E1.83621
G1 X69.227 Y27.677 E0.06568
G1 X70.651 Y28.518 E0.08251
G1 X71.654 Y29.78 E0.08042
G1 X72.083 Y30.934 E0.06142
G1 X72.262 Y31.804 E0.04431
G1 X72.262 Y68.652 E1.83835
G1 X71.723 Y70.114 E0.07774
G1 X70.764 Y71.391 E0.07967
G1 X69.594 Y72.134 E0.06915
G1 X68.189 Y72.6 E0.07385
G1 X31.349 Y72.6 E1.83796
G1 X29.934 Y72.262 E0.07258
G1 X28.725 Y71.461 E0.07235
G1 X28.19 Y70.963 E0.03647
G1 X27.531 Y69.937 E0.06084
G1 X27.062 Y68.527 E0.07413
G1 X27.062 Y31.687 E1.83796
G1 X27.4 Y30.272 E0.07258
G1 X28.201 Y29.063 E0.07235
G1 X28.699 Y28.528 E0.03647
G0 F3600 X28.961 Y28.835
G1 F1800 X29.896 Y28.234 E0.05545
G1 X31.201 Y27.8 E0.06861
G1 X67.898 Y27.8 E1.83082
G1 X69.081 Y28.055 E0.06038
G1 X70.383 Y28.824 E0.07544
G1 X71.302 Y29.98 E0.07368
G1 X71.691 Y31.015 E0.05516
G1 X71.862 Y31.846 E0.04233
G1 X71.862 Y68.582 E1.83277
G1 X71.369 Y69.919 E0.07109
G1 X70.488 Y71.092 E0.07319
G1 X69.422 Y71.769 E0.063
G1 X68.123 Y72.2 E0.06828
G1 X31.396 Y72.2 E1.83232
G1 X30.096 Y71.889 E0.06669
G1 X28.998 Y71.168 E0.06553
G1 X28.497 Y70.701 E0.03417
G1 X27.896 Y69.766 E0.05545
G1 X27.462 Y68.461 E0.06861
G1 X27.462 Y31.734 E1.83232
G1 X27.773 Y30.434 E0.06669
G1 X28.494 Y29.336 E0.06553
G1 X28.961 Y28.835 E0.03417
G0 F3600 X29.22 Y29.144
G1 F1800 X30.07 Y28.598 E0.0504
G1 X31.267 Y28.2 E0.06293
G1 X67.856 Y28.2 E1.82543
G1 X68.935 Y28.433 E0.05507
G1 X70.115 Y29.13 E0.06837
G1 X70.95 Y30.179 E0.06689
G1 X71.299 Y31.096 E0.04895
G1 X71.462 Y31.888 E0.04034
G1 X71.462 Y68.512 E1.82718
G1 X71.015 Y69.724 E0.06445
G1 X70.212 Y70.793 E0.0667
G1 X69.25 Y71.404 E0.05686
G1 X68.057 Y71.8 E0.06271
G1 X31.443 Y71.8 E1.82668
G1 X30.256 Y71.516 E0.06089
G1 X29.271 Y70.875 E0.05863
G1 X28.806 Y70.442 E0.0317
G1 X28.26 Y69.592 E0.0504
G1 X27.862 Y68.395 E0.06293
G1 X27.862 Y31.781 E1.82668
G1 X28.146 Y30.594 E0.06089
G1 X28.787 Y29.609 E0.05863
G1 X29.22 Y29.144 E0.0317
G0 F3600 X29.482 Y29.451
G1 F1800 X30.241 Y28.963 E0.04502
G1 X31.333 Y28.6 E0.05741
G1 X67.814 Y28.6 E1.82004
G1 X68.787 Y28.81 E0.04966
G1 X69.848 Y29.437 E0.06149
G1 X70.599 Y30.38 E0.06014
G1 X70.907 Y31.177 E0.04263
G1 X71.062 Y31.93 E0.03835
G1 X71.062 Y68.441 E1.82154
G1 X70.66 Y69.53 E0.05791
G1 X69.936 Y70.494 E0.06015
G1 X69.078 Y71.039 E0.05071
G1 X67.991 Y71.4 E0.05714
G1 X31.49 Y71.4 E1.82104
G1 X30.417 Y71.143 E0.05505
G1 X29.544 Y70.582 E0.05177
G1 X29.113 Y70.18 E0.0294
G1 X28.625 Y69.421 E0.04502
G1 X28.262 Y68.329 E0.05741
G1 X28.262 Y31.828 E1.82104
G1 X28.519 Y30.755 E0.05505
G1 X29.08 Y29.882 E0.05177
G1 X29.482 Y29.451 E0.0294
G0 F3600 X29.738 Y29.762
G1 F1800 X30.415 Y29.327 E0.04015
G1 X31.399 Y29 E0.05173
G1 X67.772 Y29 E1.81466
G1 X68.639 Y29.187 E0.04425
G1 X69.581 Y29.744 E0.0546
G1 X70.249 Y30.582 E0.05347
G1 X70.515 Y31.258 E0.03624
G1 X70.662 Y31.972 E0.03637
G1 X70.662 Y68.37 E1.8159
G1 X70.305 Y69.336 E0.05138
G1 X69.66 Y70.195 E0.05359
G1 X68.906 Y70.674 E0.04457
G1 X67.925 Y71 E0.05157
G1 X31.537 Y71 E1.8154
G1 X30.577 Y70.77 E0.04925
G1 X29.76 Y70.245 E0.04845
G1 X29.424 Y69.924 E0.02318
G1 X28.989 Y69.247 E0.04015
G1 X28.662 Y68.263 E0.05173
G1 X28.662 Y31.875 E1.8154
G1 X28.892 Y30.915 E0.04925
G1 X29.417 Y30.098 E0.04845
G1 X29.738 Y29.762 E0.02318
G0 F3600 X29.954 Y30.099
G1 F1800 X30.589 Y29.691 E0.03766
G1 X31.465 Y29.4 E0.04605
G1 X67.73 Y29.4 E1.80927
G1 X68.491 Y29.564 E0.03884
G1 X69.314 Y30.051 E0.04771
G1 X69.898 Y30.784 E0.04676
G1 X70.123 Y31.339 E0.02988
G1 X70.262 Y32.014 E0.03438
G1 X70.262 Y68.299 E1.81027
G1 X69.95 Y69.142 E0.04485
G1 X69.385 Y69.895 E0.04697
G1 X68.732 Y70.31 E0.0386
G1 X67.859 Y70.6 E0.04589
G1 X31.584 Y70.6 E1.80977
G1 X30.737 Y70.397 E0.04345
G1 X29.976 Y69.908 E0.04513
G1 X29.761 Y69.708 E0.01465
G1 X29.353 Y69.073 E0.03766
G1 X29.062 Y68.197 E0.04605
G1 X29.062 Y31.922 E1.80977
G1 X29.265 Y31.075 E0.04345
G1 X29.754 Y30.314 E0.04513
G1 X29.954 Y30.099 E0.01465
G0 F3600 X30.212 Y30.409
G1 F1800 X30.763 Y30.055 E0.03267
G1 X31.531 Y29.8 E0.04037
G1 X67.688 Y29.8 E1.80388
G1 X68.343 Y29.941 E0.03343
G1 X69.047 Y30.358 E0.04082
G1 X69.585 Y31.033 E0.04306
G1 X69.731 Y31.42 E0.02064
G1 X69.862 Y32.056 E0.0324
G1 X69.862 Y68.228 E1.80463
G1 X69.595 Y68.948 E0.03831
G1 X69.11 Y69.595 E0.04034
G1 X68.558 Y69.946 E0.03264
G1 X67.793 Y70.2 E0.04021
G1 X31.631 Y70.2 E1.80413
G1 X30.897 Y70.024 E0.03766
G1 X30.192 Y69.571 E0.04181
G1 X30.071 Y69.45 E0.00854
G1 X29.717 Y68.899 E0.03267
G1 X29.462 Y68.131 E0.04037
G1 X29.462 Y31.969 E1.80413
G1 X29.638 Y31.235 E0.03766
G1 X30.091 Y30.53 E0.04181
G1 X30.212 Y30.409 E0.00854
G0 F3600 X30.428 Y30.746
G1 F1800 X30.937 Y30.419 E0.03018
G1 X31.597 Y30.2 E0.03469
G1 X67.646 Y30.2 E1.79849
G1 X68.195 Y30.318 E0.02802
G1 X68.78 Y30.665 E0.03393
G1 X69.232 Y31.232 E0.03618
G1 X69.339 Y31.501 E0.01444
G1 X69.462 Y32.098 E0.03041
G1 X69.462 Y68.156 E1.79894
G1 X69.24 Y68.754 E0.03182
G1 X68.833 Y69.297 E0.03386
G1 X68.387 Y69.581 E0.02638
G1 X67.727 Y69.8 E0.03469
G1 X31.678 Y69.8 E1.79849
G1 X31.057 Y69.651 E0.03186
G1 X30.408 Y69.234 E0.03849
G1 X30.081 Y68.725 E0.03018
G1 X29.862 Y68.065 E0.03469
G1 X29.862 Y32.016 E1.79849
G1 X30.011 Y31.395 E0.03186
G1 X30.428 Y30.746 E0.03849
G0 F3600 X31.01 Y31.32
G1 F1800 X31.204 Y31.173 E0.01214
G1 X31.663 Y31 E0.02447
G1 X67.646 Y31 E1.7952
G1 X67.94 Y31.081 E0.01521
G1 X68.298 Y31.309 E0.02118
G1 X68.557 Y31.669 E0.02213
G1 X68.662 Y32.14 E0.02408
G1 X68.662 Y68.013 E1.78971
G1 X68.557 Y68.331 E0.01671
G1 X68.314 Y68.68 E0.02122
G1 X68.12 Y68.827 E0.01214
G1 X67.661 Y69 E0.02447
G1 X31.678 Y69 E1.7952
G1 X31.331 Y68.894 E0.0181
G1 X30.982 Y68.652 E0.02119
G1 X30.835 Y68.458 E0.01214
G1 X30.662 Y67.999 E0.02447
G1 X30.662 Y32.016 E1.7952
G1 X30.768 Y31.669 E0.0181
G1 X31.01 Y31.32 E0.02119
G0 F3600 X30.717 Y31.036
G1 F1800 X31.063 Y30.799 E0.02092
G1 X31.663 Y30.6 E0.03154
G1 X67.646 Y30.6 E1.7952
G1 X68.046 Y30.695 E0.02051
G1 X68.513 Y30.972 E0.02709
G1 X68.882 Y31.435 E0.02954
G1 X68.947 Y31.582 E0.00802
G1 X69.062 Y32.14 E0.02842
G1 X69.062 Y68.084 E1.79325
G1 X68.885 Y68.56 E0.02534
G1 X68.556 Y68.999 E0.02737
G1 X68.261 Y69.201 E0.01784
G1 X67.661 Y69.4 E0.03154
G1 X31.678 Y69.4 E1.7952
G1 X31.214 Y69.277 E0.02395
G1 X30.698 Y68.945 E0.03061
G1 X30.461 Y68.599 E0.02092
G1 X30.262 Y67.999 E0.03154
G1 X30.262 Y32.016 E1.7952
G1 X30.385 Y31.552 E0.02395
G1 X30.717 Y31.036 E0.03061
G1 F1500 E-6.5
;MESH:rkd01B.stl
G0 F3600 X31.457 Y31.767
G0 X31.735 Y31.969
;TYPE:WALL-INNER
G1 F1500 E6.5
G1 F1157.6 X31.696 Y31.902 E0.00601
G1 X31.619 Y31.902 E0.00597
G1 X31.581 Y31.969 E0.00598
G1 X31.62 Y32.036 E0.00601
G1 X31.697 Y32.036 E0.00597
G1 X31.735 Y31.969 E0.00598
G0 F3600 X32.608 Y31.722
G0 X33.777 Y31.954
G0 X45.724 Y55.438
G0 X52.812 Y55.438
G0 X54.072 Y55.397
G0 X53.611 Y55.397
G1 F1800 X53.419 Y55.542 E0.012
G1 X53.228 Y55.597 E0.00992
G1 X46.092 Y55.597 E0.35602
G1 X45.794 Y55.477 E0.01603
G1 X45.663 Y55.338 E0.00953
G1 X45.563 Y55.062 E0.01465
G1 X45.56 Y45 E0.502
G1 X45.587 Y44.819 E0.00913
G1 X45.675 Y44.645 E0.00973
G1 X45.845 Y44.488 E0.01154
G1 X46.092 Y44.403 E0.01303
G1 X53.228 Y44.403 E0.35602
G1 X53.475 Y44.488 E0.01303
G1 X53.686 Y44.71 E0.01528
G1 X53.76 Y44.919 E0.01106
G1 X53.76 Y55.077 E0.50678
G1 X53.611 Y55.397 E0.01761
G0 F3600 X54.072 Y55.397
G0 X64.655 Y67.707
G0 X64.941 Y67.59
G1 F1800 X64.778 Y67.194 E0.02136
G1 X64.732 Y66.964 E0.0117
G1 X64.732 Y66.532 E0.02155
G1 X64.778 Y66.3 E0.0118
G1 X64.981 Y65.831 E0.0255
G1 X65.441 Y65.339 E0.0336
G1 X65.966 Y65.113 E0.02852
G1 X66.196 Y65.068 E0.01169
G1 X66.624 Y65.068 E0.02135
G1 X66.854 Y65.113 E0.01169
G1 X67.25 Y65.277 E0.02138
G1 X67.448 Y65.41 E0.0119
G1 X67.86 Y65.882 E0.03126
G1 X67.86 Y34.119 E1.58466
G1 X67.749 Y34.285 E0.00996
G1 X67.444 Y34.588 E0.02145
G1 X67.25 Y34.719 E0.01168
G1 X66.854 Y34.883 E0.02138
G1 X66.624 Y34.928 E0.01169
G1 X66.196 Y34.928 E0.02135
G1 X65.966 Y34.883 E0.01169
G1 X65.433 Y34.64 E0.02922
G1 X65 Y34.21 E0.03044
G1 X64.774 Y33.689 E0.02833
G1 X64.728 Y33.45 E0.01214
G1 X64.732 Y33.026 E0.02115
G1 X64.778 Y32.8 E0.01151
G1 X64.942 Y32.408 E0.0212
G1 X65.069 Y32.218 E0.0114
G1 X65.373 Y31.91 E0.02159
G1 X65.539 Y31.8 E0.00994
G1 X33.781 Y31.8 E1.58441
G1 X33.947 Y31.91 E0.00994
G1 X34.251 Y32.218 E0.02159
G1 X34.378 Y32.408 E0.0114
G1 X34.542 Y32.8 E0.0212
G1 X34.588 Y33.032 E0.0118
G1 X34.588 Y33.464 E0.02155
G1 X34.543 Y33.694 E0.01169
G1 X34.34 Y34.168 E0.02573
G1 X33.878 Y34.659 E0.03364
G1 X33.342 Y34.885 E0.02902
G1 X33.116 Y34.928 E0.01148
G1 X32.696 Y34.928 E0.02095
G1 X32.466 Y34.883 E0.01169
G1 X32.07 Y34.719 E0.02138
G1 X31.872 Y34.586 E0.0119
G1 X31.568 Y34.278 E0.02159
G1 X31.461 Y34.115 E0.00973
G1 X31.461 Y65.882 E1.58486
G1 X31.568 Y65.718 E0.00977
G1 X31.872 Y65.41 E0.02159
G1 X32.07 Y65.277 E0.0119
G1 X32.466 Y65.113 E0.02138
G1 X32.696 Y65.068 E0.01169
G1 X33.124 Y65.068 E0.02135
G1 X33.354 Y65.113 E0.01169
G1 X33.875 Y65.337 E0.02829
G1 X34.301 Y65.774 E0.03045
